polaris-icons/icons/DomainNewIcon.svg

<svg xmlns="http://www.w3.org/2000/svg" viewBox="0 0 20 20"><path d="M3.25 3C2.83579 3 2.5 3.33579 2.5 3.75V12.75C2.5 13.1642 2.83579 13.5 3.25 13.5C3.66421 13.5 4 13.1642 4 12.75V4.5H14.25C14.6642 4.5 15 4.16421 15 3.75C15 3.33579 14.6642 3 14.25 3H3.25Z"/>
<path fill-rule="evenodd" d="M5 6.25C5 5.83579 5.33579 5.5 5.75 5.5H16.25C16.6642 5.5 17 5.83579 17 6.25V10.75C17 11.1642 16.6642 11.5 16.25 11.5C15.8358 11.5 15.5 11.1642 15.5 10.75V9.5H6.5V14.5H9.75C10.1642 14.5 10.5 14.8358 10.5 15.25C10.5 15.6642 10.1642 16 9.75 16H5.75C5.33579 16 5 15.6642 5 15.25V6.25ZM15.5 7V8H6.5V7H15.5Z"/>
<path d="M12.5 15.25C12.5 14.8358 12.8358 14.5 13.25 14.5H14.5V13.25C14.5 12.8358 14.8358 12.5 15.25 12.5C15.6642 12.5 16 12.8358 16 13.25V14.5H17.25C17.6642 14.5 18 14.8358 18 15.25C18 15.6642 17.6642 16 17.25 16H16V17.25C16 17.6642 15.6642 18 15.25 18C14.8358 18 14.5 17.6642 14.5 17.25V16H13.25C12.8358 16 12.5 15.6642 12.5 15.25Z"/>
</svg>

<svg xmlns="http://www.w3.org/2000/svg" viewBox="0 0 20 20"><path d="M3.25 3c-.414 0-.75.336-.75.75v9c0 .414.336.75.75.75s.75-.336.75-.75v-8.25h10.25c.414 0 .75-.336.75-.75s-.336-.75-.75-.75h-11Z"/><path fill-rule="evenodd" d="M5 6.25c0-.414.336-.75.75-.75h10.5c.414 0 .75.336.75.75v4.5c0 .414-.336.75-.75.75s-.75-.336-.75-.75v-1.25h-9v5h3.25c.414 0 .75.336.75.75s-.336.75-.75.75h-4c-.414 0-.75-.336-.75-.75v-9Zm10.5.75v1h-9v-1h9Z"/><path d="M12.5 15.25c0-.414.336-.75.75-.75h1.25v-1.25c0-.414.336-.75.75-.75s.75.336.75.75v1.25h1.25c.414 0 .75.336.75.75s-.336.75-.75.75h-1.25v1.25c0 .414-.336.75-.75.75s-.75-.336-.75-.75v-1.25h-1.25c-.414 0-.75-.336-.75-.75Z"/></svg>
